Icons/Colored/Trash.svg

<svg xmlns="http://www.w3.org/2000/svg" xml:space="preserve" fill-rule="evenodd" stroke-linejoin="round" stroke-miterlimit="2" clip-rule="evenodd" viewBox="0 0 64 64">
  <g id="grey">
    <path fill="#929090" d="M19.789 54a2.932 2.932 0 0 1-2.992-2.859l-.738-30.016h31.863l-.602 30.016A2.93 2.93 0 0 1 44.328 54H19.789Z"/>
    <path fill="#b5b5b5" d="m13.684 17.176.136-4.129a1.49 1.49 0 0 1 1.637-1.32l8.379.293.055-1.532a.48.48 0 0 1 .179-.398c.203-.078.418-.106.633-.082l14.293.5.774.195.214.473-.046 1.418 8.839.312a1.496 1.496 0 0 1 1.539 1.434l-.148 4.113-36.484-1.277Z"/>
  </g>
</svg>

<?xml version="1.0" encoding="UTF-8" standalone="no"?>
<!DOCTYPE svg PUBLIC "-//W3C//DTD SVG 1.1//EN" "http://www.w3.org/Graphics/SVG/1.1/DTD/svg11.dtd">
<svg width="100%" height="100%" viewBox="0 0 64 64" version="1.1" xmlns="http://www.w3.org/2000/svg" xmlns:xlink="http://www.w3.org/1999/xlink" xml:space="preserve" xmlns:serif="http://www.serif.com/" style="fill-rule:evenodd;clip-rule:evenodd;stroke-linejoin:round;stroke-miterlimit:2;">
    <g id="surface1">
        <path d="M19.789,54C18.176,54.035 16.84,52.758 16.797,51.141L16.059,21.125L47.922,21.125L47.32,51.141C47.281,52.758 45.941,54.035 44.328,54L19.789,54M13.684,17.176L13.82,13.047C13.91,12.23 14.641,11.641 15.457,11.727L23.836,12.02L23.891,10.488C23.883,10.336 23.949,10.188 24.07,10.09C24.273,10.012 24.488,9.984 24.703,10.008L38.996,10.508L39.77,10.703L39.984,11.176L39.938,12.594L48.777,12.906C49.598,12.883 50.281,13.52 50.316,14.34L50.168,18.453L13.684,17.176" style="fill:#929090;fill-rule:nonzero;"/>
        <path d="M13.684,17.176L13.82,13.047C13.91,12.23 14.641,11.641 15.457,11.727L23.836,12.02L23.891,10.488C23.883,10.336 23.949,10.188 24.07,10.09C24.273,10.012 24.488,9.984 24.703,10.008L38.996,10.508L39.77,10.703L39.984,11.176L39.938,12.594L48.777,12.906C49.598,12.883 50.281,13.52 50.316,14.34L50.168,18.453L13.684,17.176Z" style="fill:#b5b5b5;"/>
    </g>
    <g id="Layer1">
    </g>
</svg>
